app/assets/images/cover-mount.svg

<svg xmlns="http://www.w3.org/2000/svg" xmlns:xlink="http://www.w3.org/1999/xlink" viewBox="0 0 102 91.629">
  <defs>
    <style>
      .cls-1 {
        fill: #c7c7c7;
        stroke: #656565;
      }

      .cls-2 {
        fill: url(#linear-gradient);
      }

      .cls-3, .cls-4, .cls-6, .cls-8 {
        fill: none;
      }

      .cls-3, .cls-4 {
        stroke: #858e95;
        stroke-linecap: round;
      }

      .cls-3 {
        stroke-linejoin: round;
      }

      .cls-5 {
        fill: #e7f8f8;
        opacity: 0.35;
      }

      .cls-6 {
        stroke: #707070;
      }

      .cls-7, .cls-9 {
        stroke: none;
      }

      .cls-9 {
        fill: #2c2f31;
      }

      .cls-10 {
        filter: url(#長方形_19);
      }

      .cls-11 {
        filter: url(#長方形_18);
      }
    </style>
    <filter id="長方形_18" x="0.029" y="7" width="10" height="84.629" filterUnits="userSpaceOnUse">
      <feOffset dx="1" dy="1" input="SourceAlpha"/>
      <feGaussianBlur result="blur"/>
      <feFlood flood-opacity="0.494"/>
      <feComposite operator="in" in2="blur"/>
      <feComposite in="SourceGraphic"/>
    </filter>
    <filter id="長方形_19" x="91.971" y="7" width="10" height="84.629" filterUnits="userSpaceOnUse">
      <feOffset dx="-1" dy="1" input="SourceAlpha"/>
      <feGaussianBlur result="blur-2"/>
      <feFlood flood-opacity="0.494"/>
      <feComposite operator="in" in2="blur-2"/>
      <feComposite in="SourceGraphic"/>
    </filter>
    <linearGradient id="linear-gradient" x1="0.5" y1="0.348" x2="0.5" y2="1.213" gradientUnits="objectBoundingBox">
      <stop offset="0" stop-color="#f7e2d2"/>
      <stop offset="1" stop-color="#aa825f"/>
    </linearGradient>
  </defs>
  <g id="グループ化_70" data-name="グループ化 70" transform="translate(-263 -467)">
    <g class="cls-11" transform="matrix(1, 0, 0, 1, 263, 467)">
      <g id="長方形_18-2" data-name="長方形 18" class="cls-1" transform="translate(0.03 7)">
        <rect class="cls-7" width="9" height="83.629" rx="2"/>
        <rect class="cls-8" x="0.5" y="0.5" width="8" height="82.629" rx="1.5"/>
      </g>
    </g>
    <g class="cls-10" transform="matrix(1, 0, 0, 1, 263, 467)">
      <g id="長方形_19-2" data-name="長方形 19" class="cls-1" transform="translate(92.97 7)">
        <rect class="cls-7" width="9" height="83.629" rx="2"/>
        <rect class="cls-8" x="0.5" y="0.5" width="8" height="82.629" rx="1.5"/>
      </g>
    </g>
    <g id="長方形_20" data-name="長方形 20" class="cls-1" transform="translate(264 468)">
      <path class="cls-7" d="M2,0H25a1,1,0,0,1,1,1V4a1,1,0,0,1-1,1H2A2,2,0,0,1,0,3V2A2,2,0,0,1,2,0Z"/>
      <path class="cls-8" d="M2-.5H25A1.5,1.5,0,0,1,26.5,1V4A1.5,1.5,0,0,1,25,5.5H2A2.5,2.5,0,0,1-.5,3V2A2.5,2.5,0,0,1,2-.5Z"/>
    </g>
    <g id="長方形_21" data-name="長方形 21" class="cls-1" transform="translate(338 468)">
      <path class="cls-7" d="M1,0H24a2,2,0,0,1,2,2V3a2,2,0,0,1-2,2H1A1,1,0,0,1,0,4V1A1,1,0,0,1,1,0Z"/>
      <path class="cls-8" d="M1-.5H24A2.5,2.5,0,0,1,26.5,2V3A2.5,2.5,0,0,1,24,5.5H1A1.5,1.5,0,0,1-.5,4V1A1.5,1.5,0,0,1,1-.5Z"/>
    </g>
    <rect id="長方形_22" data-name="長方形 22" class="cls-2" width="82" height="5" transform="translate(273 482)"/>
    <g id="グループ化_37" data-name="グループ化 37" transform="translate(0 -7)">
      <path id="パス_23" data-name="パス 23" class="cls-3" d="M4060.369,477.436h11.8v17.151" transform="translate(-3793 0)"/>
      <line id="線_30" data-name="線 30" class="cls-4" y2="6" transform="translate(281.5 488.73)"/>
      <line id="線_32" data-name="線 32" class="cls-4" y2="6" transform="translate(283.5 488.73)"/>
      <line id="線_34" data-name="線 34" class="cls-4" y2="6" transform="translate(285.5 488.73)"/>
      <line id="線_36" data-name="線 36" class="cls-4" y2="6" transform="translate(287.5 488.73)"/>
      <line id="線_37" data-name="線 37" class="cls-4" y2="6" transform="translate(289.5 488.73)"/>
      <line id="線_38" data-name="線 38" class="cls-4" y2="6" transform="translate(291.5 488.73)"/>
    </g>
    <g id="グループ化_38" data-name="グループ化 38" transform="translate(627.869 971.086) rotate(180)">
      <path id="パス_23-2" data-name="パス 23" class="cls-3" d="M4060.369,494.55h11.8V477.436" transform="translate(-3793 5.921)"/>
      <line id="線_30-2" data-name="線 30" class="cls-4" y2="6" transform="translate(281.5 483.5)"/>
      <line id="線_32-2" data-name="線 32" class="cls-4" y2="6" transform="translate(283.5 483.5)"/>
      <line id="線_34-2" data-name="線 34" class="cls-4" y2="6" transform="translate(285.5 483.5)"/>
      <line id="線_36-2" data-name="線 36" class="cls-4" y2="6" transform="translate(287.5 483.5)"/>
      <line id="線_39" data-name="線 39" class="cls-4" y2="6" transform="translate(289.5 483.5)"/>
      <line id="線_40" data-name="線 40" class="cls-4" y2="6" transform="translate(291.5 483.5)"/>
    </g>
    <g id="合体_1" data-name="合体 1" class="cls-5" transform="translate(4066 479)">
      <path class="cls-7" d="M -3712.000244140625 15.49982452392578 L -3714.999755859375 15.49982452392578 C -3715.275634765625 15.49982452392578 -3715.500244140625 15.27574729919434 -3715.500244140625 15.0003137588501 L -3715.500244140625 11.00035858154297 L -3715.500244140625 10.50035858154297 L -3716.000244140625 10.50035858154297 L -3788.00048828125 10.50035858154297 L -3788.50048828125 10.50035858154297 L -3788.50048828125 11.00035858154297 L -3788.50048828125 15.0003137588501 C -3788.50048828125 15.27574729919434 -3788.724609375 15.49982452392578 -3789 15.49982452392578 L -3792.00048828125 15.49982452392578 C -3792.27587890625 15.49982452392578 -3792.5 15.27574729919434 -3792.5 15.0003137588501 L -3792.5 -3.000441789627075 C -3792.5 -3.275875091552734 -3792.27587890625 -3.499952793121338 -3792.00048828125 -3.499952793121338 L -3789 -3.499952793121338 C -3788.724609375 -3.499952793121338 -3788.50048828125 -3.275875091552734 -3788.50048828125 -3.000441789627075 L -3788.50048828125 2.770487526504439e-06 L -3788.50048828125 0.5000027418136597 L -3788.00048828125 0.5000027418136597 L -3716.000244140625 0.5000027418136597 L -3715.500244140625 0.5000027418136597 L -3715.500244140625 2.770487526504439e-06 L -3715.500244140625 -3.000441789627075 C -3715.500244140625 -3.275875091552734 -3715.275634765625 -3.499952793121338 -3714.999755859375 -3.499952793121338 L -3712.000244140625 -3.499952793121338 C -3711.724365234375 -3.499952793121338 -3711.499755859375 -3.275875091552734 -3711.499755859375 -3.000441789627075 L -3711.499755859375 2.770487526504439e-06 L -3711.499755859375 11.00035858154297 L -3711.499755859375 15.0003137588501 C -3711.499755859375 15.27574729919434 -3711.724365234375 15.49982452392578 -3712.000244140625 15.49982452392578 Z"/>
      <path class="cls-9" d="M -3711.999755859375 15.0003137588501 L -3711.999755859375 11.00035858154297 L -3711.999755859375 2.770487526504439e-06 L -3712.000244140625 -2.999952793121338 L -3715.000244140625 -3.000441789627075 L -3715.000244140625 2.770487526504439e-06 L -3715.000244140625 1.00000274181366 L -3716.000244140625 1.00000274181366 L -3788.00048828125 1.00000274181366 L -3789.00048828125 1.00000274181366 L -3789.00048828125 2.770487526504439e-06 L -3789 -2.999952793121338 L -3792 -3.000441789627075 L -3792.00048828125 14.99982452392578 L -3789.00048828125 15.0003137588501 L -3789.00048828125 11.00035858154297 L -3789.00048828125 10.00035858154297 L -3788.00048828125 10.00035858154297 L -3716.000244140625 10.00035858154297 L -3715.000244140625 10.00035858154297 L -3715.000244140625 11.00035858154297 L -3714.999755859375 14.99982452392578 L -3712.000244140625 14.99982452392578 L -3711.999755859375 15.0003137588501 M -3712.000244140625 15.99982452392578 L -3714.999755859375 15.99982452392578 C -3715.552001953125 15.99982452392578 -3716.000244140625 15.55242538452148 -3716.000244140625 15.0003137588501 L -3716.000244140625 11.00035858154297 L -3788.00048828125 11.00035858154297 L -3788.00048828125 15.0003137588501 C -3788.00048828125 15.55242538452148 -3788.44775390625 15.99982452392578 -3789 15.99982452392578 L -3792.00048828125 15.99982452392578 C -3792.552490234375 15.99982452392578 -3793 15.55242538452148 -3793 15.0003137588501 L -3793 -3.000441789627075 C -3793 -3.552552700042725 -3792.552490234375 -3.999952793121338 -3792.00048828125 -3.999952793121338 L -3789 -3.999952793121338 C -3788.44775390625 -3.999952793121338 -3788.00048828125 -3.552552700042725 -3788.00048828125 -3.000441789627075 L -3788.00048828125 2.770487526504439e-06 L -3716.000244140625 2.770487526504439e-06 L -3716.000244140625 -3.000441789627075 C -3716.000244140625 -3.552552700042725 -3715.552001953125 -3.999952793121338 -3714.999755859375 -3.999952793121338 L -3712.000244140625 -3.999952793121338 C -3711.4482421875 -3.999952793121338 -3710.999755859375 -3.552552700042725 -3710.999755859375 -3.000441789627075 L -3710.999755859375 2.770487526504439e-06 L -3710.999755859375 11.00035858154297 L -3710.999755859375 15.0003137588501 C -3710.999755859375 15.55242538452148 -3711.4482421875 15.99982452392578 -3712.000244140625 15.99982452392578 Z"/>
    </g>
    <line id="線_41" data-name="線 41" class="cls-6" x1="50" transform="translate(289.5 473.5)"/>
  </g>
</svg>

<?xml version="1.0" encoding="utf-8"?>
<!-- Generator: Adobe Illustrator 22.1.0, SVG Export Plug-In . SVG Version: 6.00 Build 0)  -->
<svg version="1.1" id="レイヤー_1" xmlns="http://www.w3.org/2000/svg" xmlns:xlink="http://www.w3.org/1999/xlink" x="0px"
	 y="0px" viewBox="0 0 102 91.6" style="enable-background:new 0 0 102 91.6;" xml:space="preserve">
<style type="text/css">
	.st0{fill:#656565;}
	.st1{fill:none;stroke:#656565;}
	.st2{fill:#C7C7C7;}
	.st3{fill:url(#長方形_22_1_);}
	.st4{fill:none;stroke:#858E95;stroke-linecap:round;stroke-linejoin:round;}
	.st5{fill:none;stroke:#858E95;stroke-linecap:round;}
	.st6{opacity:0.35;}
	.st7{fill:#E7F8F8;}
	.st8{fill:#2C2F31;}
	.st9{fill:none;stroke:#707070;}
</style>
<g id="グループ化_70" transform="translate(-263 -467)">
	<g transform="matrix(1, 0, 0, 1, 263, 467)">
		<g id="長方形_19-2_1_" transform="translate(92.97 7)">
			<path class="st0" d="M1,1h5c1.1,0,2,0.9,2,2v79.6c0,1.1-0.9,2-2,2H1c-1.1,0-2-0.9-2-2V3C-1,1.9-0.1,1,1,1z"/>
			<path class="st1" d="M1,1.5h5c0.8,0,1.5,0.7,1.5,1.5v79.6c0,0.8-0.7,1.5-1.5,1.5H1c-0.8,0-1.5-0.7-1.5-1.5V3
				C-0.5,2.2,0.2,1.5,1,1.5z"/>
		</g>
	</g>
	<g transform="matrix(1, 0, 0, 1, 263, 467)">
		<g id="長方形_19-2_2_" transform="translate(92.97 7)">
			<path class="st0" d="M-89.9,1h5c1.1,0,2,0.9,2,2v79.6c0,1.1-0.9,2-2,2h-5c-1.1,0-2-0.9-2-2V3C-91.9,1.9-91,1-89.9,1z"/>
			<path class="st1" d="M-89.9,1.5h5c0.8,0,1.5,0.7,1.5,1.5v79.6c0,0.8-0.7,1.5-1.5,1.5h-5c-0.8,0-1.5-0.7-1.5-1.5V3
				C-91.4,2.2-90.8,1.5-89.9,1.5z"/>
		</g>
	</g>
	<g transform="matrix(1, 0, 0, 1, 263, 467)">
		<g id="長方形_18-2" transform="translate(0.03 7)">
			<path class="st2" d="M2,0h5c1.1,0,2,0.9,2,2v79.6c0,1.1-0.9,2-2,2H2c-1.1,0-2-0.9-2-2V2C0,0.9,0.9,0,2,0z"/>
			<path class="st1" d="M2,0.5h5c0.8,0,1.5,0.7,1.5,1.5v79.6c0,0.8-0.7,1.5-1.5,1.5H2c-0.8,0-1.5-0.7-1.5-1.5V2
				C0.5,1.2,1.2,0.5,2,0.5z"/>
		</g>
	</g>
	<g transform="matrix(1, 0, 0, 1, 263, 467)">
		<g id="長方形_19-2" transform="translate(92.97 7)">
			<path class="st2" d="M2,0h5c1.1,0,2,0.9,2,2v79.6c0,1.1-0.9,2-2,2H2c-1.1,0-2-0.9-2-2V2C0,0.9,0.9,0,2,0z"/>
			<path class="st1" d="M2,0.5h5c0.8,0,1.5,0.7,1.5,1.5v79.6c0,0.8-0.7,1.5-1.5,1.5H2c-0.8,0-1.5-0.7-1.5-1.5V2
				C0.5,1.2,1.2,0.5,2,0.5z"/>
		</g>
	</g>
	<g id="長方形_20" transform="translate(264 468)">
		<path class="st2" d="M2,0h23c0.6,0,1,0.4,1,1v3c0,0.6-0.4,1-1,1H2C0.9,5,0,4.1,0,3V2C0,0.9,0.9,0,2,0z"/>
		<path class="st1" d="M2-0.5h23c0.8,0,1.5,0.7,1.5,1.5v3c0,0.8-0.7,1.5-1.5,1.5H2C0.6,5.5-0.5,4.4-0.5,3V2C-0.5,0.6,0.6-0.5,2-0.5z
			"/>
	</g>
	<g id="長方形_21" transform="translate(338 468)">
		<path class="st2" d="M1,0h23c1.1,0,2,0.9,2,2v1c0,1.1-0.9,2-2,2H1C0.4,5,0,4.6,0,4V1C0,0.4,0.4,0,1,0z"/>
		<path class="st1" d="M1-0.5h23c1.4,0,2.5,1.1,2.5,2.5v1c0,1.4-1.1,2.5-2.5,2.5H1C0.2,5.5-0.5,4.8-0.5,4V1C-0.5,0.2,0.2-0.5,1-0.5z
			"/>
	</g>
	
		<linearGradient id="長方形_22_1_" gradientUnits="userSpaceOnUse" x1="-190.8902" y1="830.252" x2="-190.8902" y2="829.387" gradientTransform="matrix(82 0 0 -5 15967 4635)">
		<stop  offset="0" style="stop-color:#F7E2D2"/>
		<stop  offset="1" style="stop-color:#AA825F"/>
	</linearGradient>
	<rect id="長方形_22" x="273" y="482" class="st3" width="82" height="5"/>
	<g id="グループ化_37" transform="translate(0 -7)">
		<path id="パス_23" class="st4" d="M267.4,477.4h11.8v17.2"/>
		<line id="線_30" class="st5" x1="281.5" y1="488.7" x2="281.5" y2="494.7"/>
		<line id="線_32" class="st5" x1="283.5" y1="488.7" x2="283.5" y2="494.7"/>
		<line id="線_34" class="st5" x1="285.5" y1="488.7" x2="285.5" y2="494.7"/>
		<line id="線_36" class="st5" x1="287.5" y1="488.7" x2="287.5" y2="494.7"/>
		<line id="線_37" class="st5" x1="289.5" y1="488.7" x2="289.5" y2="494.7"/>
		<line id="線_38" class="st5" x1="291.5" y1="488.7" x2="291.5" y2="494.7"/>
	</g>
	<g id="グループ化_38" transform="translate(627.869 971.086) rotate(180)">
		<path id="パス_23-2" class="st4" d="M267.4,500.5h11.8v-17.1"/>
		<line id="線_30-2" class="st5" x1="281.5" y1="483.5" x2="281.5" y2="489.5"/>
		<line id="線_32-2" class="st5" x1="283.5" y1="483.5" x2="283.5" y2="489.5"/>
		<line id="線_34-2" class="st5" x1="285.5" y1="483.5" x2="285.5" y2="489.5"/>
		<line id="線_36-2" class="st5" x1="287.5" y1="483.5" x2="287.5" y2="489.5"/>
		<line id="線_39" class="st5" x1="289.5" y1="483.5" x2="289.5" y2="489.5"/>
		<line id="線_40" class="st5" x1="291.5" y1="483.5" x2="291.5" y2="489.5"/>
	</g>
	<g id="合体_1" transform="translate(4066 479)" class="st6">
		<path class="st7" d="M-3712,15.5h-3c-0.3,0-0.5-0.2-0.5-0.5v-4v-0.5h-0.5h-72h-0.5V11v4c0,0.3-0.2,0.5-0.5,0.5h-3
			c-0.3,0-0.5-0.2-0.5-0.5V-3c0-0.3,0.2-0.5,0.5-0.5h3c0.3,0,0.5,0.2,0.5,0.5v3v0.5h0.5h72h0.5V0v-3c0-0.3,0.2-0.5,0.5-0.5h3
			c0.3,0,0.5,0.2,0.5,0.5v3v11v4C-3711.5,15.3-3711.7,15.5-3712,15.5z"/>
		<path class="st8" d="M-3712,15v-4V0l0-3l-3,0v3v1h-1h-72h-1V0l0-3l-3,0l0,18l3,0v-4v-1h1h72h1v1l0,4L-3712,15L-3712,15 M-3712,16
			h-3c-0.6,0-1-0.4-1-1v-4h-72v4c0,0.6-0.4,1-1,1h-3c-0.6,0-1-0.4-1-1V-3c0-0.6,0.4-1,1-1h3c0.6,0,1,0.4,1,1v3h72v-3
			c0-0.6,0.4-1,1-1h3c0.6,0,1,0.4,1,1v3v11v4C-3711,15.6-3711.4,16-3712,16z"/>
	</g>
	<line id="線_41" class="st9" x1="339.5" y1="473.5" x2="289.5" y2="473.5"/>
</g>
</svg>
